X:1
T: The Charter Oak
C:
R:Reel
Q: 232
K:A
M:4/4
L:1/8
cB|A2 A,2 C2 E2|A3B cA Bc|A2 A,2 C2 E2|B,2 AB cd Bc|
A2 A,2 C2 E2|AG AB BB ce|fe fg ag af|ec Ac Bd cB|
|:Ac ((3efg) ae ce|fa eg af ec|Ac ((3efg) ae fe|dc BA GA BG|
Ac ((3efg) ae ce|fa eg a2 ((3efg) |ag bg af ((3efg) |af ec Bd cB:|
A2 A,2 C2 E2|A3B cA Bc|A2 A,2 C2 E2|B,2 AB cd Bc|
A2 A,2 C2 E2|AG AB BB ce|fe fg ag af|ec AB A2||
